src/themes/images/2023/language-default.svg

<svg width="42" height="42" viewBox="0 0 42 42" fill="none" xmlns="http://www.w3.org/2000/svg">
<g clip-path="url(#clip0_110_60894)">
<path d="M42 21C42 25.1534 40.7684 29.2136 38.4609 32.667C36.1534 36.1204 32.8736 38.8121 29.0364 40.4015C25.1991 41.9909 20.9767 42.4068 16.9031 41.5965C12.8295 40.7862 9.08767 38.7862 6.15077 35.8493C3.21386 32.9124 1.21381 29.1705 0.403519 25.0969C-0.406771 21.0233 0.00909901 16.8009 1.59854 12.9637C3.18798 9.12642 5.8796 5.84667 9.33303 3.53916C12.7865 1.23165 16.8466 2.13544e-05 21 2.13544e-05C23.7589 -0.00391569 26.4914 0.536578 29.041 1.59053C31.5906 2.64449 33.9072 4.19118 35.858 6.142C37.8088 8.09281 39.3555 10.4094 40.4095 12.959C41.4635 15.5086 42.0039 18.2412 42 21Z" fill="#6B6FDE"/>
<path d="M28.7 21.5601V28.5671C27.901 26.5211 26.3653 24.848 24.395 23.8771C24.346 23.8561 24.297 23.8281 24.248 23.8071C23.23 23.3369 22.1214 23.0956 21 23.1001C19.9338 23.0989 18.8785 23.3157 17.899 23.7371C17.8487 23.7575 17.7996 23.7809 17.752 23.8071C15.7131 24.7648 14.1195 26.4687 13.3 28.5671V21.5601C13.9228 19.9873 14.9817 18.6249 16.352 17.6331C16.4027 17.5895 16.4566 17.5498 16.513 17.5141C17.856 16.5738 19.4605 16.0794 21.0997 16.1008C22.739 16.1221 24.3301 16.6581 25.648 17.6331C25.704 17.6681 25.76 17.7101 25.816 17.7521C27.1032 18.7381 28.0997 20.0539 28.7 21.5601Z" fill="#EAE9F0"/>
<path d="M12.8158 30.7999C12.6765 30.7999 12.543 30.7445 12.4446 30.6461C12.3461 30.5476 12.2908 30.4141 12.2908 30.2749V21.1749C12.2908 21.0357 12.3461 20.9021 12.4445 20.8037C12.543 20.7052 12.6765 20.6499 12.8158 20.6499C12.955 20.6499 13.0885 20.7052 13.187 20.8037C13.2855 20.9021 13.3408 21.0357 13.3408 21.1749V30.2749C13.3407 30.4141 13.2854 30.5476 13.187 30.6461C13.0885 30.7445 12.955 30.7999 12.8158 30.7999Z" fill="#FDD303"/>
<path d="M29.1783 30.7999C29.0391 30.7999 28.9056 30.7445 28.8071 30.6461C28.7087 30.5476 28.6534 30.4141 28.6533 30.2749V21.1749C28.6533 21.0357 28.7086 20.9021 28.8071 20.8037C28.9055 20.7052 29.0391 20.6499 29.1783 20.6499C29.3176 20.6499 29.4511 20.7052 29.5496 20.8037C29.648 20.9021 29.7033 21.0357 29.7033 21.1749V30.2749C29.7033 30.4141 29.648 30.5476 29.5495 30.6461C29.4511 30.7445 29.3175 30.7999 29.1783 30.7999Z" fill="#FDD303"/>
<path d="M25.6481 17.6331C25.4848 19.7483 25.0131 21.8283 24.2481 23.8071C23.2301 23.3369 22.1214 23.0956 21.0001 23.1001C19.9338 23.0989 18.8785 23.3157 17.8991 23.7371C17.8487 23.7575 17.7996 23.7809 17.7521 23.8071C16.987 21.8283 16.5153 19.7483 16.3521 17.6331C16.4027 17.5895 16.4566 17.5498 16.5131 17.5141C17.856 16.5738 19.4605 16.0794 21.0997 16.1008C22.739 16.1221 24.3301 16.6581 25.6481 17.6331Z" fill="#E0DFE6"/>
<path d="M23.0971 24.5C23.0971 24.5 25.1971 21.7 25.1971 12.6C25.1971 3.5 20.9971 0 20.9971 0C20.9971 0 16.7971 3.5 16.7971 12.6C16.7971 21.7 18.8971 24.5 18.8971 24.5H23.0971Z" fill="#F9553F"/>
<path d="M33.6 37.7999C29.965 40.5262 25.5438 41.9999 21 41.9999C16.4563 41.9999 12.035 40.5262 8.40002 37.7999H9.10002C9.10002 37.7999 10.5 37.7999 11.2 35.6999C11.9 33.5999 13.3 33.5999 16.1 33.5999C18.9 33.5999 21 25.8999 21 25.8999C21 25.8999 23.1 33.5999 25.9 33.5999C28.7 33.5999 30.1 33.5999 30.8 35.6999C31.5 37.7999 32.9 37.7999 32.9 37.7999H33.6Z" fill="#ECF1F2"/>
<path d="M24.2941 5.887C22.1127 5.50436 19.8814 5.50436 17.7001 5.887C18.9321 1.722 20.9971 0 20.9971 0C20.9971 0 23.0621 1.722 24.2941 5.887Z" fill="#3A4946"/>
<path d="M20.9971 11.2C22.1569 11.2 23.0971 10.2598 23.0971 9.1C23.0971 7.9402 22.1569 7 20.9971 7C19.8373 7 18.8971 7.9402 18.8971 9.1C18.8971 10.2598 19.8373 11.2 20.9971 11.2Z" fill="#FDD303"/>
<path d="M20.997 16.4499C21.7702 16.4499 22.397 15.8231 22.397 15.0499C22.397 14.2767 21.7702 13.6499 20.997 13.6499C20.2238 13.6499 19.597 14.2767 19.597 15.0499C19.597 15.8231 20.2238 16.4499 20.997 16.4499Z" fill="#FDD303"/>
<path d="M20.997 20.9999C21.5769 20.9999 22.047 20.5298 22.047 19.9499C22.047 19.37 21.5769 18.8999 20.997 18.8999C20.4171 18.8999 19.947 19.37 19.947 19.9499C19.947 20.5298 20.4171 20.9999 20.997 20.9999Z" fill="#FDD303"/>
<path d="M18.8971 24.5H23.0971V25.9C23.0971 26.0857 23.0233 26.2637 22.8921 26.395C22.7608 26.5263 22.5827 26.6 22.3971 26.6H19.5971C19.4114 26.6 19.2334 26.5263 19.1021 26.395C18.9708 26.2637 18.8971 26.0857 18.8971 25.9V24.5Z" fill="#3A4946"/>
<path d="M7.00005 8.4C7.38665 8.4 7.70005 8.0866 7.70005 7.7C7.70005 7.3134 7.38665 7 7.00005 7C6.61345 7 6.30005 7.3134 6.30005 7.7C6.30005 8.0866 6.61345 8.4 7.00005 8.4Z" fill="#BFC1EF"/>
<path d="M11.2 15.4C11.5866 15.4 11.9 15.0866 11.9 14.7C11.9 14.3134 11.5866 14 11.2 14C10.8134 14 10.5 14.3134 10.5 14.7C10.5 15.0866 10.8134 15.4 11.2 15.4Z" fill="#BFC1EF"/>
<path d="M14 5.6002C14.3866 5.6002 14.7 5.28679 14.7 4.9002C14.7 4.5136 14.3866 4.2002 14 4.2002C13.6134 4.2002 13.3 4.5136 13.3 4.9002C13.3 5.28679 13.6134 5.6002 14 5.6002Z" fill="#BFC1EF"/>
<path d="M29.4 8.4C29.7866 8.4 30.1 8.0866 30.1 7.7C30.1 7.3134 29.7866 7 29.4 7C29.0134 7 28.7 7.3134 28.7 7.7C28.7 8.0866 29.0134 8.4 29.4 8.4Z" fill="#BFC1EF"/>
<path d="M30.8 16.7999C31.1866 16.7999 31.5 16.4865 31.5 16.0999C31.5 15.7133 31.1866 15.3999 30.8 15.3999C30.4134 15.3999 30.1 15.7133 30.1 16.0999C30.1 16.4865 30.4134 16.7999 30.8 16.7999Z" fill="#BFC1EF"/>
<path d="M35 23.7999C35.3866 23.7999 35.7 23.4865 35.7 23.0999C35.7 22.7133 35.3866 22.3999 35 22.3999C34.6134 22.3999 34.3 22.7133 34.3 23.0999C34.3 23.4865 34.6134 23.7999 35 23.7999Z" fill="#BFC1EF"/>
<path d="M7.00005 22.4C7.38665 22.4 7.70005 22.0866 7.70005 21.7C7.70005 21.3134 7.38665 21 7.00005 21C6.61345 21 6.30005 21.3134 6.30005 21.7C6.30005 22.0866 6.61345 22.4 7.00005 22.4Z" fill="#BFC1EF"/>
<path opacity="0.3" d="M21.1611 0.153816C20.5481 1.93146 20.1235 3.76852 19.8941 5.63482C19.6005 7.71008 19.4577 9.80391 19.4671 11.8998C19.4096 16.1294 19.8014 20.353 20.6361 24.4998H19.4671C19.4671 24.4998 17.7171 21.6998 17.7171 12.5998C17.6936 10.3392 17.9499 8.08445 18.4801 5.88682H18.4731C18.4791 5.8533 18.4885 5.82048 18.5011 5.78882C18.5011 5.78182 18.5081 5.76782 18.5081 5.76082C18.5361 5.63482 18.5641 5.52282 18.5991 5.40382C18.6551 5.20782 18.7041 5.01882 18.7601 4.82982C18.7951 4.72482 18.8301 4.61282 18.8651 4.50782C18.9421 4.24882 19.0331 3.99682 19.1171 3.75882C19.1521 3.67482 19.1871 3.59782 19.2221 3.51382C19.2851 3.34582 19.3481 3.18482 19.4111 3.02382C19.4461 2.93982 19.4811 2.86282 19.5161 2.77882C19.6071 2.59682 19.6841 2.41482 19.7681 2.24682C19.7891 2.19782 19.8171 2.14882 19.8451 2.09282C19.9221 1.94582 19.9991 1.79882 20.0691 1.66582C20.1041 1.60982 20.1391 1.55382 20.1671 1.49782C20.2371 1.37882 20.3001 1.26682 20.3631 1.16882L20.4261 1.06382C20.5031 0.937816 20.5801 0.825816 20.6501 0.720816C20.6781 0.685816 20.6991 0.657816 20.7201 0.629816C20.7761 0.552816 20.8181 0.489816 20.8671 0.426816C20.8811 0.405816 20.9021 0.377816 20.9161 0.356816C20.9721 0.286816 21.0211 0.223816 21.0631 0.174816C21.0745 0.164965 21.0839 0.153101 21.0911 0.139816L21.1191 0.111816L21.1611 0.153816Z" fill="white"/>
</g>
<defs>
<clipPath id="clip0_110_60894">
<rect width="42" height="42" fill="white"/>
</clipPath>
</defs>
</svg>

<?xml version="1.0" encoding="UTF-8"?>
<svg fill="none" viewBox="0 0 42 42" xmlns="http://www.w3.org/2000/svg">
<g clip-path="url(#a)">
<path d="m42 21c0 4.1534-1.2316 8.2136-3.5391 11.667s-5.5873 6.1451-9.4245 7.7345c-3.8373 1.5894-8.0597 2.0053-12.133 1.195s-7.8154-2.8103-10.752-5.7472c-2.9369-2.9369-4.937-6.6788-5.7473-10.752-0.81029-4.0736-0.39442-8.296 1.195-12.133 1.5894-3.8373 4.2811-7.117 7.7345-9.4245 3.4535-2.3075 7.5136-3.5391 11.667-3.5391 2.7589-0.003937 5.4914 0.53656 8.041 1.5905 2.5496 1.054 4.8662 2.6006 6.817 4.5515 1.9508 1.9508 3.4975 4.2674 4.5515 6.817s1.5944 5.2822 1.5905 8.041z" fill="#6B6FDE"/>
<path d="m28.7 21.56v7.007c-0.799-2.046-2.3347-3.7191-4.305-4.69-0.049-0.021-0.098-0.049-0.147-0.07-1.018-0.4702-2.1266-0.7115-3.248-0.707-1.0662-0.0012-2.1215 0.2156-3.101 0.637-0.0503 0.0204-0.0994 0.0438-0.147 0.07-2.0389 0.9577-3.6325 2.6616-4.452 4.76v-7.007c0.6228-1.5728 1.6817-2.9352 3.052-3.927 0.0507-0.0436 0.1046-0.0833 0.161-0.119 1.343-0.9403 2.9475-1.4347 4.5867-1.4133 1.6393 0.0213 3.2304 0.5573 4.5483 1.5323 0.056 0.035 0.112 0.077 0.168 0.119 1.2872 0.986 2.2837 2.3018 2.884 3.808z" fill="#EAE9F0"/>
<path d="m12.816 30.8c-0.1393 0-0.2728-0.0554-0.3712-0.1538-0.0985-0.0985-0.1538-0.232-0.1538-0.3712v-9.1c0-0.1392 0.0553-0.2728 0.1537-0.3712 0.0985-0.0985 0.232-0.1538 0.3713-0.1538 0.1392 0 0.2727 0.0553 0.3712 0.1538 0.0985 0.0984 0.1538 0.232 0.1538 0.3712v9.1c-1e-4 0.1392-0.0554 0.2727-0.1538 0.3712-0.0985 0.0984-0.232 0.1538-0.3712 0.1538z" fill="#FDD303"/>
<path d="m29.178 30.8c-0.1392 0-0.2727-0.0554-0.3712-0.1538-0.0984-0.0985-0.1537-0.232-0.1538-0.3712v-9.1c0-0.1392 0.0553-0.2728 0.1538-0.3712 0.0984-0.0985 0.232-0.1538 0.3712-0.1538 0.1393 0 0.2728 0.0553 0.3713 0.1538 0.0984 0.0984 0.1537 0.232 0.1537 0.3712v9.1c0 0.1392-0.0553 0.2727-0.1538 0.3712-0.0984 0.0984-0.232 0.1538-0.3712 0.1538z" fill="#FDD303"/>
<path d="m25.648 17.633c-0.1633 2.1152-0.635 4.1952-1.4 6.174-1.018-0.4702-2.1267-0.7115-3.248-0.707-1.0663-0.0012-2.1216 0.2156-3.101 0.637-0.0504 0.0204-0.0995 0.0438-0.147 0.07-0.7651-1.9788-1.2368-4.0588-1.4-6.174 0.0506-0.0436 0.1045-0.0833 0.161-0.119 1.3429-0.9403 2.9474-1.4347 4.5866-1.4133 1.6393 0.0213 3.2304 0.5573 4.5484 1.5323z" fill="#E0DFE6"/>
<path d="m23.097 24.5s2.1-2.8 2.1-11.9-4.2-12.6-4.2-12.6-4.2 3.5-4.2 12.6 2.1 11.9 2.1 11.9h4.2z" fill="#F9553F"/>
<path d="m33.6 37.8c-3.635 2.7263-8.0562 4.2-12.6 4.2-4.5437 0-8.965-1.4737-12.6-4.2h0.7s1.4 0 2.1-2.1 2.1-2.1 4.9-2.1 4.9-7.7 4.9-7.7 2.1 7.7 4.9 7.7 4.2 0 4.9 2.1 2.1 2.1 2.1 2.1h0.7z" fill="#ECF1F2"/>
<path d="m24.294 5.887c-2.1814-0.38264-4.4127-0.38264-6.594 0 1.232-4.165 3.297-5.887 3.297-5.887s2.065 1.722 3.297 5.887z" fill="#3A4946"/>
<path d="m20.997 11.2c1.1598 0 2.1-0.9402 2.1-2.1s-0.9402-2.1-2.1-2.1-2.1 0.9402-2.1 2.1 0.9402 2.1 2.1 2.1z" fill="#FDD303"/>
<path d="m20.997 16.45c0.7732 0 1.4-0.6268 1.4-1.4s-0.6268-1.4-1.4-1.4-1.4 0.6268-1.4 1.4 0.6268 1.4 1.4 1.4z" fill="#FDD303"/>
<path d="m20.997 21c0.5799 0 1.05-0.4701 1.05-1.05s-0.4701-1.05-1.05-1.05-1.05 0.4701-1.05 1.05 0.4701 1.05 1.05 1.05z" fill="#FDD303"/>
<path d="m18.897 24.5h4.2v1.4c0 0.1857-0.0738 0.3637-0.205 0.495-0.1313 0.1313-0.3094 0.205-0.495 0.205h-2.8c-0.1857 0-0.3637-0.0737-0.495-0.205s-0.205-0.3093-0.205-0.495v-1.4z" fill="#3A4946"/>
<path d="m7 8.4c0.3866 0 0.7-0.3134 0.7-0.7s-0.3134-0.7-0.7-0.7-0.7 0.3134-0.7 0.7 0.3134 0.7 0.7 0.7z" fill="#BFC1EF"/>
<path d="m11.2 15.4c0.3866 0 0.7-0.3134 0.7-0.7s-0.3134-0.7-0.7-0.7-0.7 0.3134-0.7 0.7 0.3134 0.7 0.7 0.7z" fill="#BFC1EF"/>
<path d="m14 5.6002c0.3866 0 0.7-0.31341 0.7-0.7 0-0.3866-0.3134-0.7-0.7-0.7s-0.7 0.3134-0.7 0.7c0 0.38659 0.3134 0.7 0.7 0.7z" fill="#BFC1EF"/>
<path d="m29.4 8.4c0.3866 0 0.7-0.3134 0.7-0.7s-0.3134-0.7-0.7-0.7-0.7 0.3134-0.7 0.7 0.3134 0.7 0.7 0.7z" fill="#BFC1EF"/>
<path d="m30.8 16.8c0.3866 0 0.7-0.3134 0.7-0.7s-0.3134-0.7-0.7-0.7-0.7 0.3134-0.7 0.7 0.3134 0.7 0.7 0.7z" fill="#BFC1EF"/>
<path d="m35 23.8c0.3866 0 0.7-0.3134 0.7-0.7s-0.3134-0.7-0.7-0.7-0.7 0.3134-0.7 0.7 0.3134 0.7 0.7 0.7z" fill="#BFC1EF"/>
<path d="m7 22.4c0.3866 0 0.7-0.3134 0.7-0.7s-0.3134-0.7-0.7-0.7-0.7 0.3134-0.7 0.7 0.3134 0.7 0.7 0.7z" fill="#BFC1EF"/>
<path d="m21.161 0.15382c-0.613 1.7776-1.0376 3.6147-1.267 5.481-0.2936 2.0753-0.4364 4.1691-0.427 6.265-0.0575 4.2296 0.3343 8.4532 1.169 12.6h-1.169s-1.75-2.8-1.75-11.9c-0.0235-2.2606 0.2328-4.5154 0.763-6.713h-7e-3c6e-3 -0.03352 0.0154-0.06634 0.028-0.098 0-7e-3 7e-3 -0.021 7e-3 -0.028 0.028-0.126 0.056-0.238 0.091-0.357 0.056-0.196 0.105-0.385 0.161-0.574 0.035-0.105 0.07-0.217 0.105-0.322 0.077-0.259 0.168-0.511 0.252-0.749 0.035-0.084 0.07-0.161 0.105-0.245 0.063-0.168 0.126-0.329 0.189-0.49 0.035-0.084 0.07-0.161 0.105-0.245 0.091-0.182 0.168-0.364 0.252-0.532 0.021-0.049 0.049-0.098 0.077-0.154 0.077-0.147 0.154-0.294 0.224-0.427 0.035-0.056 0.07-0.112 0.098-0.168 0.07-0.119 0.133-0.231 0.196-0.329l0.063-0.105c0.077-0.126 0.154-0.238 0.224-0.343 0.028-0.035 0.049-0.063 0.07-0.091 0.056-0.077 0.098-0.14 0.147-0.203 0.014-0.021 0.035-0.049 0.049-0.07 0.056-0.07 0.105-0.133 0.147-0.182 0.0114-0.009851 0.0208-0.021715 0.028-0.035l0.028-0.028 0.042 0.042z" fill="#fff" opacity=".3"/>
</g>
<defs>
<clipPath id="a">
<rect width="42" height="42" fill="#fff"/>
</clipPath>
</defs>
</svg>
